icons/svgs/phone-circle-solid.svg

<svg width="24" height="24" viewBox="0 0 24 24" fill="none" xmlns="http://www.w3.org/2000/svg">
<path d="M12 22C8.40625 22 5.125 20.125 3.32812 17C1.53125 13.9141 1.53125 10.125 3.32812 7C5.125 3.91406 8.40625 2 12 2C15.5547 2 18.8359 3.91406 20.6328 7C22.4297 10.125 22.4297 13.9141 20.6328 17C18.8359 20.125 15.5547 22 12 22ZM9.26562 7.03906L7.54688 7.50781C7.23438 7.625 7 7.89844 7 8.25C7 13.0938 10.9062 17 15.75 17C16.1016 17 16.375 16.7656 16.4922 16.4531L16.9609 14.7344C17.0391 14.3438 16.8828 13.9531 16.4922 13.7969L14.6172 13.0156C14.3047 12.8984 13.9531 12.9766 13.7188 13.25L12.9375 14.1875C11.5703 13.5625 10.4375 12.4297 9.8125 11.0625L10.75 10.2812C11.0234 10.0469 11.1016 9.69531 10.9844 9.38281L10.2031 7.50781C10.0469 7.11719 9.65625 6.96094 9.26562 7.03906Z" fill="black"/>
</svg>

<svg xmlns="http://www.w3.org/2000/svg" width="24" height="24" fill="currentColor" class="icon-phone-circle-solid" viewBox="0 0 24 24">
  <mask id="a" width="21" height="20" x="1" y="2" maskUnits="userSpaceOnUse" style="mask-type:alpha">
    <path d="M12 22c-3.594 0-6.875-1.875-8.672-5-1.797-3.086-1.797-6.875 0-10C5.125 3.914 8.406 2 12 2c3.555 0 6.836 1.914 8.633 5 1.797 3.125 1.797 6.914 0 10A9.93 9.93 0 0 1 12 22M9.266 7.04l-1.72.468c-.312.117-.546.39-.546.742A8.736 8.736 0 0 0 15.75 17c.352 0 .625-.234.742-.547l.469-1.719c.078-.39-.078-.78-.469-.937l-1.875-.781a.8.8 0 0 0-.898.234l-.781.938a6.4 6.4 0 0 1-3.126-3.126l.938-.78a.8.8 0 0 0 .234-.9l-.78-1.874c-.157-.39-.548-.547-.938-.469"/>
  </mask>
  <g mask="url(#a)">
    <path d="M0 0h24v24H0z"/>
  </g>
</svg>
